static/assets/img/icons/theme/food/glass-martini.svg

<svg height="24" viewBox="0 0 24 24" width="24" xmlns="http://www.w3.org/2000/svg"><g fill="none" fill-rule="evenodd"><path d="m0 0h24v24h-24z" opacity="0"/><g fill="#000"><path d="m13 19.4 3.6856953 1.4742781c.1898292.0759317.3143047.2597861.3143047.4642384v.1614835c0 .2761424-.2238576.5-.5.5h-9c-.27614237 0-.5-.2238576-.5-.5v-.1614835c0-.2044523.12447547-.3883067.31430466-.4642384l3.68569534-1.4742781v-5.9h2z" opacity=".3"/><path d="m13.2493901 13.9609566c-.8625239.6900191-2.1211086.5501763-2.8111277-.3123476l-6.56925319-8.21156643c-.21277566-.26596957-.32869679-.59643533-.32869679-.93704257 0-.82842712.67157288-1.5 1.5-1.5h13.91937518c.3406072 0 .671073.11592113.9370425.32869679.646893.51751432.751775 1.46145288.2342607 2.10834578l-6.5692532 8.21156643c-.0922635.1153294-.1970181.220084-.3123475.3123476zm-7.16876525-8.9609566 2.41937515 3.01229084h7l2.4193752-3.01229084z" fill-rule="nonzero"/></g></g></svg>

<svg width="24px" height="24px" viewBox="0 0 24 24" version="1.1" xmlns="http://www.w3.org/2000/svg" xmlns:xlink="http://www.w3.org/1999/xlink">
    <title>Icon For Glass-martini</title>
    <g stroke="none" stroke-width="1" fill="none" fill-rule="evenodd">
        <rect opacity="0" x="0" y="0" width="24" height="24"></rect>
        <path d="M13,19.4 L16.6856953,20.8742781 C16.8755245,20.9502098 17,21.1340642 17,21.3385165 L17,21.5 C17,21.7761424 16.7761424,22 16.5,22 L7.5,22 C7.22385763,22 7,21.7761424 7,21.5 L7,21.3385165 C7,21.1340642 7.12447547,20.9502098 7.31430466,20.8742781 L11,19.4 L11,13.5 L13,13.5 L13,19.4 Z" fill="#000000" opacity="0.3"></path>
        <path d="M13.2493901,13.9609566 C12.3868662,14.6509757 11.1282815,14.5111329 10.4382624,13.648609 L3.86900921,5.43704257 C3.65623355,5.171073 3.54031242,4.84060724 3.54031242,4.5 C3.54031242,3.67157288 4.2118853,3 5.04031242,3 L18.9596876,3 C19.3002948,3 19.6307606,3.11592113 19.8967301,3.32869679 C20.5436231,3.84621111 20.6485051,4.79014967 20.1309908,5.43704257 L13.5617376,13.648609 C13.4694741,13.7639384 13.3647195,13.868693 13.2493901,13.9609566 Z M6.08062485,5 L8.5,8.01229084 L15.5,8.01229084 L17.9193752,5 L6.08062485,5 Z" fill="#000000" fill-rule="nonzero"></path>
    </g>
</svg>
